packages/foundations/assets/icons/functional/images/environment/leaf.svg

<svg xmlns="http://www.w3.org/2000/svg" width="32" height="32" fill="none"><path fill="#1A1C1F" fill-rule="evenodd" d="M23.813 7.129c-3.252.264-5.615.863-7.875 1.993-1.49.746-2.623 1.557-3.753 2.689a13.8 13.8 0 0 0-3.019 4.429c-.229.527-.281.706-.297 1.013-.017.314 0 .408.103.587.22.385.8.564 1.23.38.289-.124.446-.35.775-1.114.665-1.542 1.468-2.74 2.59-3.857 1.086-1.084 1.993-1.715 3.512-2.447 2.123-1.023 4.438-1.559 7.267-1.683 1.08-.047 3.191.001 3.265.074.015.015-.105.432-.267.927q-2.397 7.314-5.971 10.389c-1.645 1.414-3.306 2.178-5.16 2.372-.877.092-2.054-.01-2.698-.233l-.202-.07.85-.412c2.278-1.103 4.671-2.741 7.17-4.906.777-.673 2.742-2.645 2.863-2.874.054-.102.093-.295.094-.471.002-.355-.14-.602-.472-.817-.249-.162-.685-.189-.938-.058-.085.044-.618.542-1.184 1.106-1.523 1.518-2.826 2.638-4.388 3.771-5.054 3.667-9.608 4.902-13.471 3.653-.588-.19-.896-.224-1.154-.126-.505.191-.741.85-.491 1.368.151.312.391.463 1.088.685 1.287.41 2.627.589 4.052.54 1.03-.035 1.658-.119 2.7-.363l.726-.169.234.16c.641.44 1.718.873 2.701 1.085.753.163 2.381.203 3.188.08 2.441-.374 4.505-1.47 6.482-3.442 2.016-2.011 3.58-4.555 4.985-8.109.682-1.724 1.572-4.549 1.572-4.988 0-.289-.19-.647-.425-.803-.219-.145-.818-.237-2.215-.339-.677-.05-2.941-.063-3.467-.02"/></svg>

<svg width="32" height="32" viewBox="0 0 32 32" fill="none" xmlns="http://www.w3.org/2000/svg"><path d="M23.813 7.129 C 20.561 7.393,18.198 7.992,15.938 9.122 C 14.448 9.868,13.315 10.679,12.185 11.811 C 10.853 13.144,9.912 14.525,9.166 16.240 C 8.937 16.767,8.885 16.946,8.869 17.253 C 8.852 17.567,8.869 17.661,8.972 17.840 C 9.192 18.225,9.772 18.404,10.202 18.220 C 10.491 18.096,10.648 17.870,10.977 17.106 C 11.642 15.564,12.445 14.366,13.567 13.249 C 14.653 12.165,15.560 11.534,17.079 10.802 C 19.202 9.779,21.517 9.243,24.346 9.119 C 25.426 9.072,27.537 9.120,27.611 9.193 C 27.626 9.208,27.506 9.625,27.344 10.120 C 25.747 14.995,23.755 18.460,21.373 20.509 C 19.728 21.923,18.067 22.687,16.213 22.881 C 15.336 22.973,14.159 22.871,13.515 22.648 L 13.313 22.578 14.163 22.166 C 16.441 21.063,18.834 19.425,21.333 17.260 C 22.110 16.587,24.075 14.615,24.196 14.386 C 24.250 14.284,24.289 14.091,24.290 13.915 C 24.292 13.560,24.150 13.313,23.818 13.098 C 23.569 12.936,23.133 12.909,22.880 13.040 C 22.795 13.084,22.262 13.582,21.696 14.146 C 20.173 15.664,18.870 16.784,17.308 17.917 C 12.254 21.584,7.700 22.819,3.837 21.570 C 3.249 21.380,2.941 21.346,2.683 21.444 C 2.178 21.635,1.942 22.294,2.192 22.812 C 2.343 23.124,2.583 23.275,3.280 23.497 C 4.567 23.907,5.907 24.086,7.332 24.037 C 8.362 24.002,8.990 23.918,10.032 23.674 L 10.758 23.505 10.992 23.665 C 11.633 24.105,12.710 24.538,13.693 24.750 C 14.446 24.913,16.074 24.953,16.881 24.830 C 19.322 24.456,21.386 23.360,23.363 21.388 C 25.379 19.377,26.943 16.833,28.348 13.279 C 29.030 11.555,29.920 8.730,29.920 8.291 C 29.920 8.002,29.730 7.644,29.495 7.488 C 29.276 7.343,28.677 7.251,27.280 7.149 C 26.603 7.099,24.339 7.086,23.813 7.129 " fill="#1A1C1F" stroke="none" fill-rule="evenodd"></path></svg>
